account-filter-outline.svg

<svg fill="currentColor" viewBox="0 0 24 24"><path d="m17 21 1.8 1.77c.5.5 1.2.1 1.2-.49V18l2.8-3.4A1 1 0 0 0 22 13h-7c-.8 0-1.3 1-.8 1.6L17 18zm-2-1H2v-3c0-2.7 5.3-4 8-4 .6 0 1.3.1 2.1.2-.2.6-.1 1.3.1 1.9-.7-.1-1.5-.2-2.2-.2-3 0-6.1 1.5-6.1 2.1v1.1h10.6l.5.6zM10 4C7.8 4 6 5.8 6 8s1.8 4 4 4 4-1.8 4-4-1.8-4-4-4m0 6c-1.1 0-2-.9-2-2s.9-2 2-2 2 .9 2 2-.9 2-2 2"/></svg>

<svg  viewBox="0 0 24 24" fill="currentColor"><path  d="M17 21L18.8 22.77C19.3 23.27 20 22.87 20 22.28V18L22.8 14.6C23.3 13.9 22.8 13 22 13H15C14.2 13 13.7 14 14.2 14.6L17 18V21M15 20H2V17C2 14.3 7.3 13 10 13C10.6 13 11.3 13.1 12.1 13.2C11.9 13.8 12 14.5 12.2 15.1C11.5 15 10.7 14.9 10 14.9C7 14.9 3.9 16.4 3.9 17V18.1H14.5L15 18.7V20M10 4C7.8 4 6 5.8 6 8S7.8 12 10 12 14 10.2 14 8 12.2 4 10 4M10 10C8.9 10 8 9.1 8 8S8.9 6 10 6 12 6.9 12 8 11.1 10 10 10Z"/></svg>
